X: 1
T: Francis Sitwell
R: strathspey
Z: 2006 John Chambers <jc:trillian.mit.edu>
M: C
L: 1/16
K: A
e2 \
| "A"c3A E3A "D"F4 D3F | "A"E3A    dcBA "E7"GB3 B3e \
| "A"c3A E3A "D"F4 D3F | "A"E3A "E7"Ge3  "A"cA3 A2 :|
f2 \
| "A"eA3 "D"fA3 "A"e4  c3f | "A"e3A     dcBA "E7"GB3 B3f \
| "A"eA3 "D"fA3 "A"eA3 a3e | "A"dcBA "E7"G3e  "A"cA3 A2 |]
f2 \
| "A"eA3 "D"fA3 "A"e4 c3f | "A"e3A    dcBA "E7"GB3 B3e \
| "A"c3A    E3A "D"F4 D3F | "A"E3A "E7"Ge3  "A"cA3 A2 |]
